packages/sources/icons/src/vitamix/bill-line.svg

<svg width="16" height="16" viewBox="0 0 16 16" fill="none" xmlns="http://www.w3.org/2000/svg">
<path fill-rule="evenodd" clip-rule="evenodd" d="M2.66667 14.6667H13.3333C13.7015 14.6667 14 14.3682 14 14V2C14 1.63181 13.7015 1.33333 13.3333 1.33333H2.66667C2.29848 1.33333 2 1.63181 2 2V14C2 14.3682 2.29848 14.6667 2.66667 14.6667ZM12.6667 2.66667V13.3333H3.33333V2.66667H12.6667ZM5.33333 6H10.6667V7.33333H5.33333V6ZM10.6667 8.66667H5.33333V10H10.6667V8.66667Z" fill="#001018"/>
</svg>

<svg width="16" height="16" fill="none" xmlns="http://www.w3.org/2000/svg"><path fill-rule="evenodd" clip-rule="evenodd" d="M2.667 14.667h10.666A.667.667 0 0 0 14 14V2a.667.667 0 0 0-.667-.667H2.667A.667.667 0 0 0 2 2v12c0 .368.298.667.667.667zm10-12v10.666H3.333V2.667h9.334zM5.333 6h5.334v1.333H5.333V6zm5.334 2.667H5.333V10h5.334V8.667z" fill="#001018"/></svg>
